!!!!SEGMENT: pl-kk--kk-i-382--045-004_lobmann-j--msza-na-3-glosy-agnus-dei.krn
!!!cenid: 18xx:1547
!!!COM: Löbmann, J.
!!!COM-rismid: pe30015898
!!!CDT: ~1800-~1899
!!!CNT:
!!!OPR: Msza na 3 głosy
!!!OTL: Agnus Dei
!!!OMV: 004
!!!PDT:
!!!AGN: Sacred; Mass
!!!SMS-siglum: PL-Kk
!!!SMS-shelfmark: Kk.I.382
!!!SMS-shelfwork: 031-004 M
!!!SMS-variant:
!!!SMS-altvar:
!!!NIFC-rismid: 1001140396
!!!URL-scan: http://repozytorium.nifc.pl/skany/pl-kk-nut--i-382
!!!ONB-nifc: UWAGA: obsada: S (T 1), T 2, B 2; S (T 1): skan 0038,T 2: skan 0108-0109, B 2: skan 0257. Osobne części Mszy: Kyrie, Sanctus, Benedictus, Agnus Dei
**kern	**text	**kern	**text	**kern	**text
*part3	*part3	*part2	*part2	*part1	*part1
*staff3	*staff3	*staff2	*staff2	*staff1	*staff1
*Ibass	*	*Itenor	*	*Itenor	*
*I"Basso II	*	*I"Tenore II	*	*I"Soprano vel Tenore I.	*
*I'B 2	*	*I'T 2	*	*I'S (T 1)	*
*clefF4	*	*clefG2	*	*clefG2	*
*k[b-]	*	*k[b-]	*	*k[b-]	*
*g:	*	*g:	*	*g:	*
*M4/2	*	*M4/2	*	*M4/2	*
=1	=1	=1	=1	=1	=1
!LO:TX:Bi:a:t=Agnus Dei.	!	!LO:TX:Bi:a:t=Agnus Dei.	!	!LO:TX:Bi:a:t=Agnus Dei.	!
!LO:TX:t=P:problem:napis "Agnus Dei." na pięciolinii przed kluczem	!	!LO:TX:t=P:problem:napis "Agnus Dei." na pięciolinii przed kluczem	!	!LO:TX:t=P:problem:napis "Agnus Dei." na pięciolinii przed kluczem	!
!LO:TX:t=P:problem:all\right:global	!	!LO:TX:t=P:problem:all\right:global	!	!LO:TX:i:a:t=Grave	!
!LO:TX:i:a:t=Grave.	!	!LO:TX:i:a:t=Grave.	!	!LO:TX:t=P:problem:all\right:global	!
1D	Ag-	1f	Ag-	1a	Ag-
1D	-nus	1f	-nus	1a	-nus
=2	=2	=2	=2	=2	=2
1D	De-	1f	De-	1b-	De-
*2\right	*	*2\right	*	*2\right	*
2C#X/	-i	2e/	-i	2b-\	-i
2C#/	qui	2g/	qui	2b-\	qui
=3	=3	=3	=3	=3	=3
1D	tol-	(>2g/	tol-	1b-	tol-
.	.	2e/)	.	.	.
2D\	-lis	2f/	-lis	2a\	-lis
2Cn/	pec-	2f/	pec-	2a\	pec-
!LO:LB:g=original	!	!LO:LB:g=original	!	!LO:LB:g=original	!
=4	=4	=4	=4	=4	=4
1BB-	-ca-	(>2f/	-ca-	1dd	-ca-
.	.	2e/)	.	.	.
1AA	-ta	2f/	-ta	1cc	-ta
.	.	2f#X/	.	.	.
=5	=5	=5	=5	=5	=5
2GG/	mun-	1.g	mun-	1b-	mun-
2BB-/	.	.	.	.	.
1D	-di	.	.	1a	-di
.	.	2fn/	-di	.	.
=6	=6	=6	=6	=6	=6
2F\	mi-	1.a	mi-	1a	mi-
2G\	.	.	.	.	.
2F\	.	.	.	1bn	-se-
2D\	-se-	2a/	-se-	.	.
=7	=7	=7	=7	=7	=7
1AA	-re-	1a	-re-	1cc	-re-
1BB-X	-re	1g	-re	1b-X	-re
=8	=8	=8	=8	=8	=8
0C	no-	(<1f	no-	1a	no-
.	.	1e)	.	1g	.
=9	=9	=9	=9	=9	=9
1FF	-bis	1f	-bis	1f	-bis
!	!	!LO:TX:a:t=P:problem:8 wykreślonych taktów po tym takcie	!	!	!
1r	.	1r	.	1r	.
!	!	!LO:PB:g=original	!	!	!
=10	=10	=10	=10	=10	=10
!LO:TX:a:t=1	!	!LO:TX:a:t=1	!	!LO:TX:a:t=1	!
!LO:TX:a:t=P:problem:belka jako pauza	!	!LO:TX:a:t=P:problem:belka jako pauza	!	!LO:TX:a:t=P:problem:belka jako pauza	!
0r	.	0r	.	0r	.
!LO:LB:g=original	!	!	!	!LO:LB:g=original	!
=11	=11	=11	=11	=11	=11
1BB-	Ag-	2f/	A-	1dd	Ag-
.	.	1b-	.	.	.
1C	-nus	.	.	1ee-X	-nus
.	.	4a/	gnus	.	.
.	.	4g/	.	.	.
=12	=12	=12	=12	=12	=12
1D	De-	1f#X	De-	2dd\	De-
.	.	.	.	2cc\	.
2G\	-i	2g/	-i	2b-\	-i
2Fn\	qui	2a/	qui	2b-\	qui
=13	=13	=13	=13	=13	=13
1E-X	tol-	1g	tol-	2cc\	tol-
.	.	.	.	2b-\	.
2E-\	-lis	2g/	-lis	2g/	-lis
2E-\	pec-	2g/	pec-	2a/	pec-
=14	=14	=14	=14	=14	=14
2E-X\	-ca-	1f	-ca-	1b-	-ca-
2D\	.	.	.	.	.
1BB-	-ta	2f/	-ta	1dd	-ta
.	.	2b-\	.	.	.
!	!	!LO:LB:g=original	!	!	!
=15	=15	=15	=15	=15	=15
1F	mun-	1b-	mun-	1dd	mun-
1FF	-di	1a	-di	1cc	-di
=16	=16	=16	=16	=16	=16
!	!	!LO:TX:a:t=1	!	!LO:TX:a:t=3	!
!	!	!LO:TX:a:t=P:problem:belka jako pauza	!	!LO:TX:a:t=P:problem:jedna belka jako pauza wielotaktowa	!
1G	mi-	0r	.	0r	.
1E-X	-se-	.	.	.	.
!LO:LB:g=original	!	!	!	!	!
=17	=17	=17	=17	=17	=17
2F\	-re-	1b-	mi-	0r	.
1G	.	.	.	.	.
.	.	1a	-se-	.	.
2F\	.	.	.	.	.
=18	=18	=18	=18	=18	=18
2E-X\	.	1cc	-re-	0r	.
1A	.	.	.	.	.
.	.	1b-	-re	.	.
2G\	-re	.	.	.	.
!	!	!	!	!LO:LB:g=original	!
=19	=19	=19	=19	=19	=19
(>2G\	mi-	1a	mi-	1ee-X	mi-
2F#X\)	.	.	.	.	.
2G\	.	1b-	-se-	1dd	-se-
2D\	-se-	.	.	.	.
=20	=20	=20	=20	=20	=20
1.E-X	-re-	2b-\	-re-	1cc	-re-
.	.	2a/	.	.	.
.	.	1g/	.	1b-	-re
2D\	-re	.	-re	.	.
!	!	!LO:LB:g=original	!	!	!
=21	=21	=21	=21	=21	=21
2C/	no-	1.g	no-	0a	no-
2AA/	.	.	.	.	.
1D	.	.	.	.	.
.	.	2f#X/	.	.	.
=22	=22	=22	=22	=22	=22
1GG	-bis.	1g	-bis	1g	-bis
1r	.	1r	.	1r	.
!LO:LB:g=original	!	!	!	!	!
=23	=23	=23	=23	=23	=23
!LO:TX:a:t=1	!	!LO:TX:a:t=1	!	!LO:TX:a:t=1	!
!LO:TX:a:t=P:problem:belka jako pauza	!	!LO:TX:a:t=P:problem:belka jako pauza	!	!LO:TX:a:t=P:problem:belka jako pauza	!
0r	.	0r	.	0r	.
=24	=24	=24	=24	=24	=24
1F	A-	1a	A-	1cc	Ag-
1E	-gnus	1g	-gnus	1cc	-nus
=25	=25	=25	=25	=25	=25
1D	De-	2a/	De-	1ff	De-
.	.	2b-\	.	.	.
2AA/	-i	2cc\	-i	2ee\	-i
2E\	qui	2cc\	qui	2ee\	qui
!	!	!	!	!LO:LB:g=original	!
=26	=26	=26	=26	=26	=26
1G	tol-	2cc\	tol-	1dd	tol-
.	.	2b-X\	.	.	.
2E\	-lis	2b-\	-lis	2cc\	-lis
2F\	pec-	2a\	pec-	2dd\	pec-
!	!	!LO:LB:g=original	!	!	!
=27	=27	=27	=27	=27	=27
2D\	-ca-	2a/	-ca-	2b-\	-ca-
2E\	.	2g/	.	2cc\	.
2F\	-ta	2a/	-ta	2a/	-ta
2E\	pec-	2g/	pec-	2cc\	pec-
=28	=28	=28	=28	=28	=28
(>2D\	-ca-	2f/	-ca-	1dd	-ca-
2C/	.	2f#X/	.	.	.
2BBn/)	.	2g/	.	1dd	-ta
2BB-X/	-ta	2g#X/	-ta	.	.
!LO:LB:g=original	!	!	!	!	!
=29	=29	=29	=29	=29	=29
1AA	mun-	2a/	mun-	1dd	mun-
.	.	2fn/	.	.	.
1AA;>	-di;	1e;>	-di	1cc#X;>	-di
*kcancel	*	*kcancel	*	*kcancel	*
=30||	=30||	=30||	=30||	=30||	=30||
*k[f#c#]	*	*k[f#c#]	*	*k[f#c#]	*
!LO:TX:i:a:t=Un poco moto	!	!LO:TX:i:a:t=Un poco moto	!	!LO:TX:i:a:t=Un poco moto	!
1D	Do-	1f#	do-	1dd	Do-
1D	-na	(>2g/	-na	1a	-na
.	.	2f#/)	.	.	.
!	!	!LO:LB:g=original	!	!LO:LB:g=original	!
=31	=31	=31	=31	=31	=31
1GG	no-	1g	no-	1b	no-
1BB	-bis	2f#/	.	1dd	-bis
.	.	2g/	-bis	.	.
=32	=32	=32	=32	=32	=32
1E	pa-	0g	pa-	2g/	pa-
.	.	.	.	1b	.
1C#	.	.	.	.	.
.	.	.	.	2a/	.
=33	=33	=33	=33	=33	=33
1D	-cem	1f#	-cem	1a	-cem
2D\	do-	1r	.	1r	.
2D\	-na	.	.	.	.
=34	=34	=34	=34	=34	=34
1D	do-	2a/	do-	1ff#	do-
.	.	1dd	.	.	.
1AA	-na	.	.	1ee	-na
.	.	2cc#\	-na	.	.
=35	=35	=35	=35	=35	=35
2BB/	no-	(>2f#/	no-	1dd	no-
2D\	-bis	1b)	.	.	.
1F#	.	.	.	1cc#	-bis
.	.	2a/	-bis	.	.
!LO:LB:g=original	!	!LO:LB:g=original	!	!	!
=36	=36	=36	=36	=36	=36
2G\	pa-	0g	pa-	1b	pa-
2F#\	.	.	.	.	.
2E\	.	.	.	1cc#	.
2AA/	.	.	.	.	.
!	!	!	!	!LO:PB:g=original	!
=37	=37	=37	=37	=37	=37
1D	-cem	1f#	-cem	1dd	-cem
1r	.	2a/	do-	2ff#\	do-
.	.	2f#/	-na	2dd\	-na
=38	=38	=38	=38	=38	=38
1r	.	2f#/	no-	1.a	no-
.	.	2e/	.	.	.
2F#\	do-	2d/	.	.	.
2D\	-na	2f#/	-bis	2a/	-bis
=39	=39	=39	=39	=39	=39
0AA	pa-	2g/	pa-	1a	pa-
.	.	2e/	.	.	.
.	.	2a/	.	1cc#	.
.	.	2g/	.	.	.
!	!	!LO:LB:g=original	!	!	!
=40	=40	=40	=40	=40	=40
1BB	-cem	1f#	-cem	1dd	-cem
2BB/	do-	2d/	do-	2f#/	do-
2E\	-na	2e/	-na	2g/	-na
=41	=41	=41	=41	=41	=41
0AA	pa-	2f#/	pa-	0a	pa-
.	.	2d/	.	.	.
.	.	2c#/	.	.	.
.	.	2g/	.	.	.
=42	=42	=42	=42	=42	=42
2D\	-cem	2f#/	-cem	2a/	-cem
2r	.	2r	.	2r	.
1r	.	1r	.	1r	.
=43	=43	=43	=43	=43	=43
1GG	pa-	1b	pa-	0dd	pa-
1BB	.	1g	.	.	.
=44	=44	=44	=44	=44	=44
!	!	!LO:TX:i:b:t=Kraków dnia 14/5 1891\nTomasz Flasza	!	!	!
0D;>	-cem.	0f#	-cem.	0dd;>	-cem.
==	==	==	==	==	==
*-	*-	*-	*-	*-	*-
!!!system-decoration: [(s1,s2,s3)]
!!!RDF**kern: > = above
!!!RDF**kern: < = below
!!!EED: Mateusz Mrugas
!!!EST: 2021-02-10
!!!ENC: Berenika Jozajtis
!!!END: 2021-02-01
